X:1
T:Title
%%score { 1 | 2 }
L:1/8
M:3/4
K:Eb
V:1 treble nm="Grand Piano"
V:2 bass 
V:1
 z2 z2[Q:1/4=88] E2 | G>G G2 E2 | [DF]>[DG] E2 B2 | c>c c2 B2 |[M:5/8] B>G [DF]3 |[M:1/4] E2 | %6
[M:3/4] G>G G2 E2 | [DF]>[DF] E2 [Ec]2 | [EB]>[EG] [EG]2 [DF]2 |[M:2/4] E4 |] %10
V:2
 z2 z2 [E,G,]2 | [E,B,E]>[E,B,E] [E,B,E]2 [E,G,]2 | [B,,A,]>[B,,B,] [E,G,]2 [E,G,E]2 | %3
 [E,A,E]>[E,A,E] [E,A,E]2 [E,G,E]2 |[M:5/8] [E,G,E]>[E,B,E] [B,,B,]3 |[M:1/4] [E,G,]2 | %6
[M:3/4] [E,B,E]>[E,B,E] [E,B,E]2 [E,G,]2 | [B,,A,]>[B,,B,] [E,G,]2 [A,,A,]2 | %8
 [B,,G,]>[B,,B,] [B,,B,]2 [B,,A,]2 |[M:2/4] [E,G,]4 |] %10

